X: 176
T:Liberty Bell
% Nottingham Music Database
S:Monty Python, via EF
M:6/8
K:G
P:A
|:d/2c/2|"G"B2B B^AB|"G"g2d d2B|"Am"c2c c2d|"Am"e3 e2c|"D"A2A A^GA|
"D7"f2e e2c|"G"B2B "D7"B2c|"G"d3 -"D7"d2c|"G"B2B B^AB|"G"g2d d2B|"A"^c2a a2a|
"A7"a3 a2g|"D"f2a a^ga|"A7"e2a a^ga|"D7"d2^c d2c|"D7"d3 d2:|
P:B
|:c|"G"B^AB e2d|"G"B3 G3|"C"E3 "D7"A3|"G"G3 G2G|"D7"ABd f2e|"G"d3 g3|\
"D"f3 "A7"e3|"D7"d3 d2d|
"C"e2e e^de|"B7"f3 f3|"Em"g2g aga|"B"b3 b2b|"C"a2g e2c|"G"B3 G3|"D7"A3 F3|\
"G"G3 G2:|
K:C
P:C
|:G|"C"E3 F3|"C"^F3 G3|"C"e2e e2^d|"C"e3 e2G|"C"E3 F3|"C"^F3 G3|"G"f2f f2e|
"G"f3 f2e|"G"d3 "Gdim"^c3|"G"d2G ^F2G|"C"e3 "Cdim"^d3|"C"e2G ^F2G|[1"G"B3 d3|\
"D7"c2d A2c|
"G"B2c A2B|"G7"G2A F2:|2"F"A3 f3|"C"e2c "G"d2B|"C"c6|"C"c4||<end>
<start>
